icons/lines/strongbox.svg

<svg xmlns="http://www.w3.org/2000/svg" width="24" height="24" viewBox="0 0 24 24" fill="none" stroke="currentColor" stroke-width="2" stroke-linecap="round" stroke-linejoin="round" >
  <path d="M9 22H15C20 22 22 20 22 15V9C22 4 20 2 15 2H9C4 2 2 4 2 9V15C2 20 4 22 9 22Z"/>
  <path d="M14.3511 10.9101C14.2511 11.6201 13.8311 12.2201 13.2511 12.5801V14.5601C13.2511 15.2501 12.6911 15.8101 12.0011 15.8101C11.3111 15.8101 10.7511 15.2501 10.7511 14.5601V12.5801C10.1711 12.2201 9.75109 11.6201 9.65109 10.9101C9.63109 10.8001 9.62109 10.6801 9.62109 10.5601C9.62109 9.04012 11.0611 7.86012 12.6411 8.28012C13.4411 8.49012 14.0911 9.14012 14.3011 9.94012C14.3911 10.2701 14.4011 10.6001 14.3511 10.9101Z" stroke-miterlimit="10"/>
  <path d="M22.0016 10.9102H14.3516" stroke-miterlimit="10"/>
  <path d="M9.64999 10.91H2" stroke-miterlimit="10"/>
  </svg>

<svg xmlns="http://www.w3.org/2000/svg" width="24" height="24" viewBox="0 0 24 24" fill="none" stroke="currentColor" stroke-width="2" stroke-linecap="round" stroke-linejoin="round">
  <path d="M10.751 12.58a2.36 2.36 0 0 1-1.1-1.67 2 2 0 0 1-.03-.35 2.377 2.377 0 1 1 3.63 2.02v1.98a1 1 0 0 1-2.5 0z" />
  <path d="M15 22c5 0 7-2 7-7V9c0-5-2-7-7-7H9C4 2 2 4 2 9v6c0 5 2 7 7 7z" />
  <path d="M22.002 10.91h-7.65" />
  <path d="M9.65 10.91H2" />
</svg>
